svg/fluentui-system-icons/ic_fluent_prohibited_multiple_24_filled.svg

<svg width="24" height="24" viewBox="0 0 24 24" fill="none" xmlns="http://www.w3.org/2000/svg">
<path d="M10.75 19.5C15.5825 19.5 19.5 15.5825 19.5 10.75C19.5 5.91751 15.5825 2 10.75 2C5.91751 2 2 5.91751 2 10.75C2 15.5825 5.91751 19.5 10.75 19.5ZM10.75 17.5C9.24676 17.5 7.85828 17.0086 6.73645 16.1777L16.1777 6.73645C17.0086 7.85828 17.5 9.24676 17.5 10.75C17.5 14.4779 14.4779 17.5 10.75 17.5ZM14.7635 5.32225L5.32225 14.7635C4.49137 13.6416 4 12.2532 4 10.75C4 7.02208 7.02208 4 10.75 4C12.2532 4 13.6416 4.49137 14.7635 5.32225ZM20.5001 10.75C20.5001 16.1348 16.1348 20.5 10.7501 20.5C9.68374 20.5 8.6574 20.3288 7.69702 20.0125C9.20767 21.2544 11.1418 22 13.2501 22C18.0825 22 22.0001 18.0825 22.0001 13.25C22.0001 11.1417 21.2544 9.20762 20.0125 7.69697C20.3289 8.65735 20.5001 9.68368 20.5001 10.75Z" fill="#212121"/>
</svg>

<svg xmlns="http://www.w3.org/2000/svg" width="24" height="24"><path d="M10.75 19.5a8.75 8.75 0 1 0 0-17.5 8.75 8.75 0 0 0 0 17.5Zm0-2a6.72 6.72 0 0 1-4.014-1.322l9.442-9.442A6.75 6.75 0 0 1 10.75 17.5Zm4.014-12.178-9.442 9.442a6.75 6.75 0 0 1 9.441-9.441ZM20.5 10.75a9.75 9.75 0 0 1-9.75 9.75 9.743 9.743 0 0 1-3.053-.488A8.75 8.75 0 0 0 20.012 7.696a9.74 9.74 0 0 1 .488 3.054Z"/></svg>
